packages/react/src/components/base/Icon/assets/icon-lg-form.svg

<svg width="24" height="24" viewBox="0 0 24 24" xmlns="http://www.w3.org/2000/svg" fill="currentColor"> <path d="M21.2959 5.20406L18.2959 2.20406C18.1914 2.09918 18.0672 2.01596 17.9305 1.95918C17.7937 1.9024 17.6471 1.87317 17.4991 1.87317C17.351 1.87317 17.2044 1.9024 17.0676 1.95918C16.9309 2.01596 16.8067 2.09918 16.7022 2.20406L7.70219 11.2041C7.49195 11.4155 7.37427 11.7018 7.375 12V15C7.375 15.2984 7.49353 15.5845 7.7045 15.7955C7.91548 16.0065 8.20163 16.125 8.5 16.125H11.5C11.6478 16.1251 11.7941 16.0961 11.9307 16.0396C12.0673 15.9832 12.1914 15.9004 12.2959 15.7959L21.2959 6.79593C21.4005 6.69145 21.4835 6.56737 21.5401 6.4308C21.5967 6.29423 21.6259 6.14784 21.6259 5.99999C21.6259 5.85215 21.5967 5.70576 21.5401 5.56919C21.4835 5.43261 21.4005 5.30854 21.2959 5.20406ZM17.5 4.59374L18.9062 5.99999L17.875 7.03124L16.4688 5.62499L17.5 4.59374ZM11.0312 13.875H9.625V12.4687L14.875 7.21874L16.2812 8.62499L11.0312 13.875ZM20.875 13.1784V19.5C20.875 19.9973 20.6775 20.4742 20.3258 20.8258C19.9742 21.1774 19.4973 21.375 19 21.375H4C3.50272 21.375 3.02581 21.1774 2.67417 20.8258C2.32254 20.4742 2.125 19.9973 2.125 19.5V4.49999C2.125 4.00271 2.32254 3.5258 2.67417 3.17417C3.02581 2.82254 3.50272 2.62499 4 2.62499H10.3216C10.6199 2.62499 10.9061 2.74352 11.1171 2.9545C11.328 3.16548 11.4466 3.45162 11.4466 3.74999C11.4466 4.04836 11.328 4.33451 11.1171 4.54549C10.9061 4.75647 10.6199 4.87499 10.3216 4.87499H4.375V19.125H18.625V13.1784C18.625 12.8801 18.7435 12.5939 18.9545 12.3829C19.1655 12.172 19.4516 12.0534 19.75 12.0534C20.0484 12.0534 20.3345 12.172 20.5455 12.3829C20.7565 12.5939 20.875 12.8801 20.875 13.1784Z"/> </svg>

<svg viewBox="0 0 24 24" xmlns="http://www.w3.org/2000/svg" aria-hidden="true" fill="currentColor"><path d="m21.296 5.204-3-3a1.125 1.125 0 0 0-1.594 0l-9 9c-.21.211-.328.498-.327.796v3A1.125 1.125 0 0 0 8.5 16.125h3a1.13 1.13 0 0 0 .796-.33l9-9a1.125 1.125 0 0 0 0-1.59m-3.796-.61L18.906 6l-1.031 1.031-1.406-1.406zm-6.469 9.281H9.625v-1.406l5.25-5.25 1.406 1.406zm9.844-.697V19.5A1.875 1.875 0 0 1 19 21.375H4A1.875 1.875 0 0 1 2.125 19.5v-15A1.875 1.875 0 0 1 4 2.625h6.322a1.125 1.125 0 0 1 0 2.25H4.375v14.25h14.25v-5.947a1.125 1.125 0 0 1 2.25 0"/></svg>
